X: 42238
T: We Happy Few
R: waltz
M: 3/4
K: Gminor
|:"Gm"GB d2 "Cm"E2|"Dm"F3 A BA|"Gm"GB d2 "Cm"DE|"Dm"F3 A BA|
"Eb"GB g2 "F"fd|"Bb"f3 d cB|"Cm"ed cB AG|1 "D7"^F3 D BA:|2 "D7"^F3 D Bc||
|:"Bb"dc "Gm"cB "Eb"BG|"F"F3 D Bc|"Eb"dc cB "F"gf|"Gm"d3 d ga|
"Eb"ba ag "F"gf|"Bb"d3 B cd|"Cm"ed dc "D7"cB|1 "Gm"G4 Bc:|2 "Gm"G6||

